X: 37042
T: Silver Hand, The
R: jig
M: 6/8
K: Gmajor
"Em"E3 EDB,|G3 GFE|F3 FED|FAF FED|
E3 EDB,|G3 GFE|F3 FED|"(D)"FED E2D:|
"Em"E3 BEE|dEE BAG|"D"ABA AGF|"(Bm)"ABA AGF|
"Em"E3 BEE|cEE BAG|"D"ABA AGF|"(Bm)"GFE FED:|

